SVG_Azure_All/Identity.svg

<?xml version="1.0" encoding="UTF-8" standalone="no"?>
<!-- Generated by Microsoft Visio, SVG Export Identity.svg Page-1 -->

<svg
   xmlns:dc="http://purl.org/dc/elements/1.1/"
   xmlns:cc="http://creativecommons.org/ns#"
   xmlns:rdf="http://www.w3.org/1999/02/22-rdf-syntax-ns#"
   xmlns:svg="http://www.w3.org/2000/svg"
   xmlns="http://www.w3.org/2000/svg"
   xmlns:sodipodi="http://sodipodi.sourceforge.net/DTD/sodipodi-0.dtd"
   xmlns:inkscape="http://www.inkscape.org/namespaces/inkscape"
   width="0.59058005in"
   height="0.78738832in"
   viewBox="0 0 42.521731 56.692088"
   xml:space="preserve"
   class="st8"
   version="1.1"
   id="svg59"
   sodipodi:docname="Identity.svg"
   style="font-size:12px;overflow:visible;color-interpolation-filters:sRGB;fill:none;fill-rule:evenodd;stroke-linecap:square;stroke-miterlimit:3"
   inkscape:version="0.92.5 (2060ec1f9f, 2020-04-08)"><metadata
   id="metadata65"><rdf:RDF><cc:Work
       rdf:about=""><dc:format>image/svg+xml</dc:format><dc:type
         rdf:resource="http://purl.org/dc/dcmitype/StillImage" /></cc:Work></rdf:RDF></metadata><defs
   id="defs63" /><sodipodi:namedview
   pagecolor="#ffffff"
   bordercolor="#666666"
   borderopacity="1"
   objecttolerance="10"
   gridtolerance="10"
   guidetolerance="10"
   inkscape:pageopacity="0"
   inkscape:pageshadow="2"
   inkscape:window-width="640"
   inkscape:window-height="480"
   id="namedview61"
   showgrid="false"
   inkscape:zoom="1.8192493"
   inkscape:cx="28.350197"
   inkscape:cy="19.503719"
   inkscape:window-x="0"
   inkscape:window-y="0"
   inkscape:window-maximized="0"
   inkscape:current-layer="svg59" />
	<style
   type="text/css"
   id="style2">
	<![CDATA[
		.st1 {fill:#fcd116;stroke:none;stroke-linecap:butt;stroke-width:6.58442}
		.st2 {fill:#ffffff;fill-opacity:0.5;stroke:none;stroke-linecap:butt;stroke-width:6.58442}
		.st3 {fill:#59b4d9;stroke:none;stroke-linecap:butt;stroke-width:6.58442}
		.st4 {fill:#ffffff;stroke:none;stroke-linecap:butt;stroke-width:6.58442}
		.st5 {fill:#b8d432;stroke:none;stroke-linecap:butt;stroke-width:6.58442}
		.st6 {fill:#ffffff;fill-opacity:0.098;stroke:none;stroke-linecap:butt;stroke-width:6.58442}
		.st7 {fill:#ff8c00;fill-opacity:0.4;stroke:none;stroke-linecap:butt;stroke-width:6.58442}
		.st8 {fill:none;fill-rule:evenodd;font-size:12px;overflow:visible;stroke-linecap:square;stroke-miterlimit:3}
	]]>
	</style>

	<g
   id="g57"
   transform="translate(-6.5816383,-6.5822855)">
		<title
   id="title4">Page-1</title>
		<g
   id="group4202-1"
   transform="translate(6.58442,-34.0157)">
			<title
   id="title6">Identity</title>
			<g
   id="group4203-2">
				<title
   id="title8"> MSI_2</title>
				<g
   id="shape4204-3"
   transform="translate(0,-2.73658)">
					<title
   id="title10">path6</title>
					<path
   d="m 15.82,89.74 a 2.83533,2.87434 0 0 1 0,-4.07 l 6.22,-6.3 v -5.65 l 9.19,-9.31 a 6.05654,6.13986 -180 0 0 0,-8.68 L 20.78,45.13 a 6.0571,6.14043 -180 0 0 -8.56,0 L 1.77,55.73 a 6.05542,6.13873 -180 0 0 0,8.68 l 9.92,10.05 v 0.85 l -2.82,2.86 2.8,2.84 -2.8,2.84 2.8,2.83 -2.8,2.84 2.82,2.86 v 0.04 l 4.81,4.87 3.39,-3.43 z M 13.06,51.18 a 3.43763,3.48493 0 1 1 3.44,3.48 3.43819,3.48549 0 0 1 -3.44,-3.48 z"
   class="st1"
   id="path12"
   inkscape:connector-curvature="0"
   style="fill:#fcd116;stroke:none;stroke-width:6.5844202;stroke-linecap:butt" />
				</g>
				<g
   id="shape4205-5"
   transform="translate(6.91435,-34.4031)">
					<title
   id="title15">path8</title>
					<path
   d="m 0,89.7 h 19.84 v 2.89 H 0 Z m 0,4.7 h 19.84 v 2.89 H 0 Z"
   class="st2"
   id="path17"
   inkscape:connector-curvature="0"
   style="fill:#ffffff;fill-opacity:0.5;stroke:none;stroke-width:6.5844202;stroke-linecap:butt" />
				</g>
				<g
   id="shape4206-7"
   transform="translate(18.2088)">
					<title
   id="title20">path10</title>
					<path
   d="M 12.16,97.29 A 2.22465,2.25525 0 0 1 10.57,96.63 L 0.66,86.58 a 2.24142,2.27226 0 0 1 0,-3.22 l 9.91,-10.05 a 2.23975,2.27056 0 0 1 3.17,0 l 9.91,10.05 a 2.2403,2.27113 0 0 1 0,3.22 l -9.91,10.05 a 2.22465,2.25525 0 0 1 -1.58,0.66 z"
   class="st3"
   id="path22"
   inkscape:connector-curvature="0"
   style="fill:#59b4d9;stroke:none;stroke-width:6.5844202;stroke-linecap:butt" />
				</g>
				<g
   id="shape4207-9"
   transform="translate(22.5107,-3.36836)">
					<title
   id="title25">path12</title>
					<path
   d="M 14.47,86.41 A 1.89749,1.9236 -180 0 0 12.89,89.4 L 9.12,93.21 A 2.23192,2.26262 -180 0 0 8.8,93.03 v -9.74 a 1.90141,1.92757 -180 1 0 -1.89,0 v 9.74 A 2.19724,2.22747 -180 0 0 6.6,93.2 L 2.83,89.38 a 1.95342,1.98029 -180 1 0 -0.98,0.77 l 3.97,4.02 a 2.2129,2.24335 -180 1 0 4.07,0.02 l 3.98,-4.03 a 1.8768,1.90262 -180 0 0 0.6,0.11 1.903807,1.93 -180 0 0 0,-3.86 z"
   class="st4"
   id="path27"
   inkscape:connector-curvature="0"
   style="fill:#ffffff;stroke:none;stroke-width:6.5844202;stroke-linecap:butt" />
				</g>
				<g
   id="shape4208-11"
   transform="translate(29.9102,-11.4514)">
					<title
   id="title30">path14</title>
					<path
   d="m 0,90.09 0.87,-0.88 7.11,7.2 -0.87,0.88 z"
   class="st2"
   id="path32"
   inkscape:connector-curvature="0"
   style="fill:#ffffff;fill-opacity:0.5;stroke:none;stroke-width:6.5844202;stroke-linecap:butt" />
				</g>
				<g
   id="shape4209-13"
   transform="translate(22.8498,-11.4446)">
					<title
   id="title35">path16</title>
					<path
   d="m 0,96.41 7.11,-7.2 0.87,0.88 -7.11,7.2 z"
   class="st2"
   id="path37"
   inkscape:connector-curvature="0"
   style="fill:#ffffff;fill-opacity:0.5;stroke:none;stroke-width:6.5844202;stroke-linecap:butt" />
				</g>
				<g
   id="shape4210-15"
   transform="translate(22.9989,-4.66738)">
					<title
   id="title40">path18</title>
					<path
   d="M 8.66,96.35 A 1.31756,1.33569 0 1 1 7.34,95.01 1.317,1.33512 0 0 1 8.66,96.35 Z M 8.42,82.93 A 1.05696,1.0715 0 1 1 7.36,81.86 1.0564,1.07093 0 0 1 8.42,82.93 Z M 1.8,89.64 A 1.05696,1.0715 0 1 1 0.75,88.57 1.05752,1.07207 0 0 1 1.8,89.64 Z m 13.24,0 a 1.05752,1.07207 0 1 1 -1.06,-1.07 1.05752,1.07207 0 0 1 1.06,1.07 z"
   class="st5"
   id="path42"
   inkscape:connector-curvature="0"
   style="fill:#b8d432;stroke:none;stroke-width:6.5844202;stroke-linecap:butt" />
				</g>
				<g
   id="shape4211-17"
   transform="translate(18.2088,-5.02584)">
					<title
   id="title45">path20</title>
					<path
   d="m 13.74,78.34 a 2.23695,2.26772 -180 0 0 -3.17,0 L 0.66,88.39 a 2.24142,2.27226 -180 0 0 0,3.21 l 5.61,5.69 10.56,-15.82 z"
   class="st6"
   id="path47"
   inkscape:connector-curvature="0"
   style="fill:#ffffff;fill-opacity:0.09800002;stroke:none;stroke-width:6.5844202;stroke-linecap:butt" />
				</g>
				<g
   id="shape4212-19"
   transform="translate(17.2938,-15.8735)">
					<title
   id="title50">path22</title>
					<path
   d="M 2.16,95.1 V 87.78 L 0,88.86 v 8.43 z"
   class="st7"
   id="path52"
   inkscape:connector-curvature="0"
   style="fill:#ff8c00;fill-opacity:0.4;stroke:none;stroke-width:6.5844202;stroke-linecap:butt" />
				</g>
			</g>
		</g>
	</g>
</svg>

<?xml version="1.0" encoding="UTF-8" standalone="no"?>
<!DOCTYPE svg PUBLIC "-//W3C//DTD SVG 1.1//EN" "http://www.w3.org/Graphics/SVG/1.1/DTD/svg11.dtd">
<!-- Generated by Microsoft Visio, SVG Export Identity.svg Page-1 -->
<svg xmlns="http://www.w3.org/2000/svg" xmlns:xlink="http://www.w3.org/1999/xlink" xmlns:ev="http://www.w3.org/2001/xml-events"
		width="0.773452in" height="1.35129in" viewBox="0 0 55.6885 97.2931" xml:space="preserve" color-interpolation-filters="sRGB"
		class="st8">
	<style type="text/css">
	<![CDATA[
		.st1 {fill:#fcd116;stroke:none;stroke-linecap:butt;stroke-width:6.58442}
		.st2 {fill:#ffffff;fill-opacity:0.5;stroke:none;stroke-linecap:butt;stroke-width:6.58442}
		.st3 {fill:#59b4d9;stroke:none;stroke-linecap:butt;stroke-width:6.58442}
		.st4 {fill:#ffffff;stroke:none;stroke-linecap:butt;stroke-width:6.58442}
		.st5 {fill:#b8d432;stroke:none;stroke-linecap:butt;stroke-width:6.58442}
		.st6 {fill:#ffffff;fill-opacity:0.098;stroke:none;stroke-linecap:butt;stroke-width:6.58442}
		.st7 {fill:#ff8c00;fill-opacity:0.4;stroke:none;stroke-linecap:butt;stroke-width:6.58442}
		.st8 {fill:none;fill-rule:evenodd;font-size:12px;overflow:visible;stroke-linecap:square;stroke-miterlimit:3}
	]]>
	</style>

	<g>
		<title>Page-1</title>
		<g id="group4118-1" transform="translate(6.58442,-34.0157)">
			<title>Identity</title>
			<g id="group4119-2">
				<title> MSI_2</title>
				<g id="shape4120-3" transform="translate(2.07834E-13,-2.73658)">
					<title>path6</title>
					<path d="M15.82 89.74 A2.83533 2.87434 0 0 1 15.82 85.67 L22.04 79.37 L22.04 73.72 L31.23 64.41 A6.05654 6.13986
								 -180 0 0 31.23 55.73 L20.78 45.13 A6.0571 6.14043 -180 0 0 12.22 45.13 L1.77 55.73 A6.05542 6.13873
								 -180 0 0 1.77 64.41 L11.69 74.46 L11.69 75.31 L8.87 78.17 L11.67 81.01 L8.87 83.85 L11.67 86.68
								 L8.87 89.52 L11.69 92.38 L11.69 92.42 L16.5 97.29 L19.89 93.86 L15.82 89.74 ZM13.06 51.18 A3.43763
								 3.48493 0 1 1 16.5 54.66 A3.43819 3.48549 0 0 1 13.06 51.18 Z" class="st1"/>
				</g>
				<g id="shape4121-5" transform="translate(6.91435,-34.4031)">
					<title>path8</title>
					<path d="M0 89.7 L19.84 89.7 L19.84 92.59 L0 92.59 L0 89.7 ZM0 94.4 L19.84 94.4 L19.84 97.29 L0 97.29 L0 94.4
								 Z" class="st2"/>
				</g>
				<g id="shape4122-7" transform="translate(18.2088,0)">
					<title>path10</title>
					<path d="M12.16 97.29 A2.22465 2.25525 0 0 1 10.57 96.63 L0.66 86.58 A2.24142 2.27226 0 0 1 0.66 83.36 L10.57
								 73.31 A2.23975 2.27056 0 0 1 13.74 73.31 L23.65 83.36 A2.2403 2.27113 0 0 1 23.65 86.58 L13.74 96.63
								 A2.22465 2.25525 0 0 1 12.16 97.29 Z" class="st3"/>
				</g>
				<g id="shape4123-9" transform="translate(22.5107,-3.36836)">
					<title>path12</title>
					<path d="M14.47 86.41 A1.89749 1.9236 -180 0 0 12.89 89.4 L9.12 93.21 A2.23192 2.26262 -180 0 0 8.8 93.03 L8.8
								 83.29 A1.90141 1.92757 -180 1 0 6.91 83.29 L6.91 93.03 A2.19724 2.22747 -180 0 0 6.6 93.2 L2.83
								 89.38 A1.95342 1.98029 -180 1 0 1.85 90.15 L5.82 94.17 A2.2129 2.24335 -180 1 0 9.89 94.19 L13.87
								 90.16 A1.8768 1.90262 -180 0 0 14.47 90.27 A1.90141 1.92757 -180 0 0 14.47 86.41 L14.47 86.41 Z"
							class="st4"/>
				</g>
				<g id="shape4124-11" transform="translate(29.9102,-11.4514)">
					<title>path14</title>
					<path d="M0 90.09 L0.87 89.21 L7.98 96.41 L7.11 97.29 L0 90.09 Z" class="st2"/>
				</g>
				<g id="shape4125-13" transform="translate(22.8498,-11.4446)">
					<title>path16</title>
					<path d="M0 96.41 L7.11 89.21 L7.98 90.09 L0.87 97.29 L0 96.41 Z" class="st2"/>
				</g>
				<g id="shape4126-15" transform="translate(22.9989,-4.66738)">
					<title>path18</title>
					<path d="M8.66 96.35 A1.31756 1.33569 0 1 1 7.34 95.01 A1.317 1.33512 0 0 1 8.66 96.35 ZM8.42 82.93 A1.05696
								 1.0715 0 1 1 7.36 81.86 A1.0564 1.07093 0 0 1 8.42 82.93 ZM1.8 89.64 A1.05696 1.0715 0 1 1 0.75
								 88.57 A1.05752 1.07207 0 0 1 1.8 89.64 ZM15.04 89.64 A1.05752 1.07207 0 1 1 13.98 88.57 A1.05752
								 1.07207 0 0 1 15.04 89.64 Z" class="st5"/>
				</g>
				<g id="shape4127-17" transform="translate(18.2088,-5.02584)">
					<title>path20</title>
					<path d="M13.74 78.34 A2.23695 2.26772 -180 0 0 10.57 78.34 L0.66 88.39 A2.24142 2.27226 -180 0 0 0.66 91.6 L6.27
								 97.29 L16.83 81.47 L13.74 78.34 Z" class="st6"/>
				</g>
				<g id="shape4128-19" transform="translate(17.2938,-15.8735)">
					<title>path22</title>
					<path d="M2.16 95.1 L2.16 87.78 L0 88.86 L0 97.29 L2.16 95.1 Z" class="st7"/>
				</g>
			</g>
		</g>
	</g>
</svg>
